X:1
T:Millennium Birthday Waltz (complete version)
M:3/4
L:1/8
Q:145
C:(c) Greg Anderson, 29 December 1999
R:Waltz
H:A waltz, written on the edge of the new millennium, in honor of my
H:wife, Patsy's, birthday which falls on the eve of the new year
K:G
G,>C E>B A>G|B2 A2 G2|G,>C E>B A>G|B2 c2 d2|F2 D2 D2|A2 F2 F2|
A2- AB AG|F>G F>E D>B,|G,>C E>B A>G|!B2 A2 G2|d2- de dc|B2 A2 G2|
F2 D2 D2|A2 F2 E2|F2 G2 ^G2|A2 G2 F2||
[C3E3] F G2|[B,3D3] F G2|!A2 G2 F2|G2 A2 B2|[C3E3] F G2|
[B,3D3] F G2|[A,3^C3] G eB|g2 [A2f2] [G2e2]|[A2f2] [F2d2] [E2^c2]|[A2c2]
G2 F2|
[C3E3] G g2|![B,3D3] G g2|A2 B2 F2|G2 D2 G2|[C3E3] G g2|
[B,3D3] G g2|[A,3^C3] G eA|g2 [A2f2] [G2e2]|[F2d2] [D2G2] [^C2^G2]|[C2A2
] B,2 A,2||
